symbols/web/dataset/materialsymbolssharp/dataset_wght600grad200_48px.svg

<svg xmlns="http://www.w3.org/2000/svg" height="48" width="48"><path d="M5.1 42.9V5.05h37.85V42.9Zm4.15-4.15h29.5V9.25H9.25Zm0 0V9.25v29.5Zm4.9-17.1h7.5v-7.5h-7.5Zm12.2 0h7.5v-7.5h-7.5Zm-12.2 12.2h7.5v-7.5h-7.5Zm12.2 0h7.5v-7.5h-7.5Z"/></svg>

<svg xmlns="http://www.w3.org/2000/svg" height="48" width="48"><path d="M5.1 42.9V5.05H42.95V42.9ZM9.25 38.75H38.75V9.25H9.25ZM9.25 38.75V9.25V38.75ZM14.15 21.65H21.65V14.15H14.15ZM26.35 21.65H33.85V14.15H26.35ZM14.15 33.85H21.65V26.35H14.15ZM26.35 33.85H33.85V26.35H26.35Z"/></svg>
